icons/cx.svg

<?xml version="1.0" ?>
<svg xmlns="http://www.w3.org/2000/svg" xmlns:ev="http://www.w3.org/2001/xml-events" xmlns:xlink="http://www.w3.org/1999/xlink" baseProfile="full" height="535px" version="1.1" viewBox="-1031.6225 -356.5073873457093 12304.244999999999 10952.53155431578" width="600px">
	<defs/>
	<path d="M 9420.0,9660.0 C 9368.0,9650.0 9246.0,9614.0 9150.0,9580.0 C 9054.0,9547.0 8893.0,9500.0 8793.0,9476.0 L 8612.0,9433.0 L 8483.0,9454.0 C 8363.0,9473.0 8347.0,9479.0 8264.0,9526.0 C 8205.0,9561.0 8158.0,9580.0 8125.0,9585.0 L 8075.0,9591.0 L 8039.0,9543.0 C 8008.0,9502.0 7998.0,9476.0 7976.0,9370.0 C 7954.0,9272.0 7941.0,9234.0 7913.0,9191.0 L 7878.0,9137.0 L 7898.0,9083.0 L 7918.0,9029.0 L 7883.0,9003.0 L 7847.0,8976.0 L 7852.0,8884.0 L 7857.0,8793.0 L 7816.0,8745.0 C 7790.0,8716.0 7757.0,8691.0 7730.0,8680.0 C 7687.0,8663.0 7684.0,8663.0 7626.0,8683.0 C 7593.0,8694.0 7536.0,8725.0 7500.0,8752.0 L 7433.0,8800.0 L 7382.0,8785.0 L 7331.0,8770.0 L 7324.0,8712.0 C 7313.0,8631.0 7314.0,8595.0 7329.0,8415.0 L 7343.0,8254.0 L 7304.0,8166.0 L 7265.0,8078.0 L 7090.0,7942.0 C 6924.0,7811.0 6912.0,7800.0 6839.0,7695.0 C 6765.0,7589.0 6758.0,7582.0 6647.0,7508.0 C 6512.0,7418.0 6314.0,7317.0 6165.0,7260.0 C 6017.0,7205.0 5878.0,7118.0 5852.0,7064.0 L 5832.0,7024.0 L 5299.0,6838.0 L 4765.0,6653.0 L 4555.0,6635.0 L 4345.0,6618.0 L 4226.0,6568.0 C 4112.0,6520.0 4105.0,6518.0 4066.0,6530.0 C 4044.0,6537.0 3990.0,6563.0 3946.0,6588.0 C 3902.0,6612.0 3800.0,6655.0 3721.0,6681.0 C 3603.0,6721.0 3563.0,6730.0 3505.0,6730.0 C 3467.0,6730.0 3406.0,6735.0 3370.0,6740.0 C 3334.0,6745.0 3231.0,6754.0 3140.0,6761.0 C 3046.0,6767.0 2929.0,6782.0 2868.0,6795.0 C 2764.0,6818.0 2758.0,6822.0 2603.0,6922.0 C 2473.0,7007.0 2412.0,7039.0 2258.0,7104.0 C 2089.0,7175.0 2067.0,7182.0 2027.0,7176.0 C 1984.0,7169.0 1978.0,7172.0 1869.0,7243.0 L 1755.0,7318.0 L 1657.0,7484.0 C 1565.0,7643.0 1560.0,7654.0 1560.0,7709.0 L 1560.0,7766.0 L 1493.0,7812.0 C 1455.0,7837.0 1391.0,7872.0 1350.0,7890.0 C 1309.0,7908.0 1242.0,7940.0 1203.0,7962.0 C 1108.0,8014.0 1069.0,8010.0 1014.0,7944.0 C 958.0,7875.0 880.0,7690.0 880.0,7626.0 C 880.0,7594.0 867.0,7535.0 844.0,7467.0 L 808.0,7360.0 L 830.0,7217.0 C 860.0,7022.0 899.0,6930.0 989.0,6836.0 C 1038.0,6785.0 1073.0,6759.0 1126.0,6735.0 C 1165.0,6717.0 1218.0,6681.0 1247.0,6654.0 C 1298.0,6605.0 1299.0,6604.0 1369.0,6390.0 C 1436.0,6188.0 1440.0,6170.0 1440.0,6085.0 L 1440.0,5995.0 L 1380.0,5956.0 C 1331.0,5925.0 1311.0,5903.0 1279.0,5848.0 C 1194.0,5702.0 1156.0,5578.0 1140.0,5390.0 C 1123.0,5198.0 1115.0,5161.0 1077.0,5121.0 C 1059.0,5101.0 1039.0,5073.0 1033.0,5059.0 C 1024.0,5038.0 1006.0,5029.0 926.0,5005.0 C 830.0,4976.0 830.0,4976.0 830.0,4943.0 C 830.0,4915.0 826.0,4910.0 806.0,4910.0 C 785.0,4910.0 779.0,4901.0 760.0,4845.0 C 744.0,4796.0 730.0,4773.0 702.0,4751.0 C 667.0,4724.0 660.0,4722.0 600.0,4727.0 L 535.0,4732.0 L 477.0,4683.0 C 379.0,4601.0 284.0,4484.0 138.0,4266.0 L -2.0,4058.0 L 26.0,3946.0 C 41.0,3885.0 57.0,3830.0 62.0,3823.0 C 85.0,3794.0 191.0,3746.0 302.0,3716.0 C 416.0,3685.0 425.0,3684.0 488.0,3695.0 C 584.0,3712.0 757.0,3785.0 804.0,3829.0 C 825.0,3849.0 883.0,3919.0 933.0,3985.0 C 1121.0,4233.0 1202.0,4317.0 1318.0,4383.0 L 1359.0,4406.0 L 1607.0,4372.0 L 1855.0,4338.0 L 1980.0,4354.0 C 2049.0,4363.0 2157.0,4375.0 2220.0,4381.0 C 2283.0,4386.0 2360.0,4394.0 2390.0,4398.0 C 2429.0,4403.0 2515.0,4396.0 2681.0,4375.0 L 2917.0,4345.0 L 3043.0,4195.0 C 3203.0,4004.0 3257.0,3964.0 3374.0,3949.0 C 3472.0,3936.0 3568.0,3944.0 3718.0,3976.0 C 3781.0,3989.0 3842.0,4000.0 3854.0,4000.0 C 3866.0,4000.0 3915.0,3984.0 3963.0,3965.0 C 4032.0,3937.0 4063.0,3930.0 4118.0,3930.0 C 4155.0,3930.0 4309.0,3914.0 4460.0,3894.0 C 4676.0,3867.0 4764.0,3851.0 4870.0,3820.0 C 4944.0,3799.0 5071.0,3763.0 5152.0,3741.0 C 5269.0,3710.0 5307.0,3695.0 5340.0,3668.0 C 5363.0,3650.0 5454.0,3544.0 5542.0,3432.0 C 5666.0,3274.0 5702.0,3221.0 5707.0,3192.0 C 5709.0,3172.0 5725.0,3129.0 5741.0,3098.0 C 5770.0,3042.0 5771.0,3036.0 5786.0,2775.0 L 5801.0,2508.0 L 5846.0,2376.0 C 5871.0,2304.0 5908.0,2177.0 5929.0,2093.0 L 5967.0,1942.0 L 5943.0,1818.0 L 5918.0,1695.0 L 5945.0,1575.0 C 5960.0,1509.0 5991.0,1394.0 6015.0,1320.0 C 6039.0,1246.0 6070.0,1133.0 6086.0,1070.0 C 6109.0,972.0 6121.0,944.0 6164.0,880.0 C 6191.0,839.0 6225.0,796.0 6239.0,785.0 C 6253.0,775.0 6294.0,738.0 6331.0,703.0 C 6404.0,633.0 6488.0,589.0 6587.0,570.0 C 6682.0,551.0 6982.0,562.0 7095.0,589.0 C 7145.0,601.0 7239.0,615.0 7305.0,621.0 C 7460.0,635.0 7546.0,665.0 7614.0,731.0 L 7664.0,778.0 L 7663.0,911.0 C 7662.0,1015.0 7656.0,1072.0 7636.0,1163.0 C 7608.0,1289.0 7603.0,1394.0 7620.0,1495.0 C 7625.0,1528.0 7637.0,1623.0 7645.0,1705.0 C 7653.0,1788.0 7664.0,1882.0 7670.0,1915.0 C 7675.0,1948.0 7680.0,2015.0 7680.0,2063.0 C 7680.0,2120.0 7692.0,2217.0 7714.0,2338.0 C 7733.0,2441.0 7754.0,2561.0 7760.0,2605.0 C 7771.0,2673.0 7781.0,2700.0 7833.0,2790.0 C 7866.0,2848.0 7915.0,2927.0 7941.0,2967.0 C 7976.0,3021.0 7989.0,3052.0 7994.0,3094.0 C 8000.0,3142.0 8006.0,3152.0 8033.0,3169.0 C 8051.0,3180.0 8102.0,3227.0 8148.0,3273.0 L 8230.0,3358.0 L 8230.0,3468.0 L 8230.0,3578.0 L 8155.0,3735.0 L 8080.0,3893.0 L 8080.0,4196.0 L 8080.0,4500.0 L 8156.0,4634.0 L 8233.0,4767.0 L 8325.0,4816.0 L 8418.0,4865.0 L 8428.0,4942.0 C 8444.0,5049.0 8491.0,5139.0 8567.0,5206.0 C 8618.0,5250.0 8636.0,5259.0 8718.0,5280.0 C 8768.0,5293.0 8810.0,5309.0 8810.0,5315.0 C 8810.0,5321.0 8817.0,5379.0 8825.0,5443.0 L 8839.0,5561.0 L 8966.0,5760.0 C 9068.0,5922.0 9106.0,5973.0 9164.0,6026.0 C 9203.0,6063.0 9244.0,6096.0 9255.0,6100.0 C 9289.0,6112.0 9557.0,6133.0 9598.0,6127.0 C 9633.0,6121.0 9639.0,6123.0 9659.0,6150.0 C 9677.0,6176.0 9687.0,6180.0 9726.0,6180.0 C 9763.0,6180.0 9790.0,6190.0 9859.0,6229.0 C 9906.0,6255.0 9982.0,6289.0 10028.0,6304.0 C 10106.0,6330.0 10110.0,6333.0 10110.0,6361.0 C 10110.0,6384.0 10124.0,6403.0 10176.0,6453.0 L 10243.0,6516.0 L 10031.0,6673.0 C 9846.0,6810.0 9820.0,6833.0 9819.0,6857.0 C 9819.0,6872.0 9809.0,6987.0 9797.0,7112.0 L 9774.0,7340.0 L 9798.0,7387.0 C 9811.0,7414.0 9850.0,7464.0 9885.0,7500.0 C 9919.0,7536.0 9952.0,7574.0 9958.0,7585.0 C 9963.0,7596.0 9971.0,7641.0 9975.0,7685.0 C 9978.0,7729.0 9988.0,7804.0 9995.0,7852.0 C 10008.0,7935.0 10008.0,7942.0 9986.0,8013.0 C 9973.0,8055.0 9938.0,8128.0 9905.0,8181.0 C 9815.0,8326.0 9750.0,8471.0 9750.0,8528.0 C 9750.0,8554.0 9743.0,8600.0 9735.0,8630.0 C 9727.0,8660.0 9720.0,8715.0 9720.0,8752.0 C 9720.0,8812.0 9716.0,8825.0 9681.0,8882.0 C 9652.0,8929.0 9638.0,8967.0 9626.0,9033.0 C 9609.0,9122.0 9609.0,9122.0 9634.0,9218.0 C 9658.0,9313.0 9666.0,9407.0 9662.0,9541.0 L 9660.0,9608.0 L 9591.0,9644.0 C 9553.0,9664.0 9520.0,9680.0 9519.0,9679.0 C 9517.0,9679.0 9472.0,9670.0 9420.0,9660.0" fill="pink"/>
</svg>

<?xml version="1.0" standalone="no"?>
<!DOCTYPE svg PUBLIC "-//W3C//DTD SVG 20010904//EN"
 "http://www.w3.org/TR/2001/REC-SVG-20010904/DTD/svg10.dtd">
<svg version="1.0" xmlns="http://www.w3.org/2000/svg"
 width="1024.000000pt" height="1024.000000pt" viewBox="0 0 1024.000000 1024.000000"
 preserveAspectRatio="xMidYMid meet">
<metadata>
Created by potrace 1.10, written by Peter Selinger 2001-2011
</metadata>
<g transform="translate(0.000000,1024.000000) scale(0.100000,-0.100000)"
fill="#000000" stroke="none">
<path d="M9420 9660 c-52 -10 -174 -46 -270 -80 -96 -33 -257 -80 -357 -104
l-181 -43 -129 21 c-120 19 -136 25 -219 72 -59 35 -106 54 -139 59 l-50 6
-36 -48 c-31 -41 -41 -67 -63 -173 -22 -98 -35 -136 -63 -179 l-35 -54 20 -54
20 -54 -35 -26 -36 -27 5 -92 5 -91 -41 -48 c-26 -29 -59 -54 -86 -65 -43 -17
-46 -17 -104 3 -33 11 -90 42 -126 69 l-67 48 -51 -15 -51 -15 -7 -58 c-11
-81 -10 -117 5 -297 l14 -161 -39 -88 -39 -88 -175 -136 c-166 -131 -178 -142
-251 -247 -74 -106 -81 -113 -192 -187 -135 -90 -333 -191 -482 -248 -148 -55
-287 -142 -313 -196 l-20 -40 -533 -186 -534 -185 -210 -18 -210 -17 -119 -50
c-114 -48 -121 -50 -160 -38 -22 7 -76 33 -120 58 -44 24 -146 67 -225 93
-118 40 -158 49 -216 49 -38 0 -99 5 -135 10 -36 5 -139 14 -230 21 -94 6
-211 21 -272 34 -104 23 -110 27 -265 127 -130 85 -191 117 -345 182 -169 71
-191 78 -231 72 -43 -7 -49 -4 -158 67 l-114 75 -98 166 c-92 159 -97 170 -97
225 l0 57 -67 46 c-38 25 -102 60 -143 78 -41 18 -108 50 -147 72 -95 52 -134
48 -189 -18 -56 -69 -134 -254 -134 -318 0 -32 -13 -91 -36 -159 l-36 -107 22
-143 c30 -195 69 -287 159 -381 49 -51 84 -77 137 -101 39 -18 92 -54 121 -81
51 -49 52 -50 122 -264 67 -202 71 -220 71 -305 l0 -90 -60 -39 c-49 -31 -69
-53 -101 -108 -85 -146 -123 -270 -139 -458 -17 -192 -25 -229 -63 -269 -18
-20 -38 -48 -44 -62 -9 -21 -27 -30 -107 -54 -96 -29 -96 -29 -96 -62 0 -28
-4 -33 -24 -33 -21 0 -27 -9 -46 -65 -16 -49 -30 -72 -58 -94 -35 -27 -42 -29
-102 -24 l-65 5 -58 -49 c-98 -82 -193 -199 -339 -417 l-140 -208 28 -112 c15
-61 31 -116 36 -123 23 -29 129 -77 240 -107 114 -31 123 -32 186 -21 96 17
269 90 316 134 21 20 79 90 129 156 188 248 269 332 385 398 l41 23 248 -34
248 -34 125 16 c69 9 177 21 240 27 63 5 140 13 170 17 39 5 125 -2 291 -23
l236 -30 126 -150 c160 -191 214 -231 331 -246 98 -13 194 -5 344 27 63 13
124 24 136 24 12 0 61 -16 109 -35 69 -28 100 -35 155 -35 37 0 191 -16 342
-36 216 -27 304 -43 410 -74 74 -21 201 -57 282 -79 117 -31 155 -46 188 -73
23 -18 114 -124 202 -236 124 -158 160 -211 165 -240 2 -20 18 -63 34 -94 29
-56 30 -62 45 -323 l15 -267 45 -132 c25 -72 62 -199 83 -283 l38 -151 -24
-124 -25 -123 27 -120 c15 -66 46 -181 70 -255 24 -74 55 -187 71 -250 23 -98
35 -126 78 -190 27 -41 61 -84 75 -95 14 -10 55 -47 92 -82 73 -70 157 -114
256 -133 95 -19 395 -8 508 19 50 12 144 26 210 32 155 14 241 44 309 110 l50
47 -1 133 c-1 104 -7 161 -27 252 -28 126 -33 231 -16 332 5 33 17 128 25 210
8 83 19 177 25 210 5 33 10 100 10 148 0 57 12 154 34 275 19 103 40 223 46
267 11 68 21 95 73 185 33 58 82 137 108 177 35 54 48 85 53 127 6 48 12 58
39 75 18 11 69 58 115 104 l82 85 0 110 0 110 -75 157 -75 158 0 303 0 304 76
134 77 133 92 49 93 49 10 77 c16 107 63 197 139 264 51 44 69 53 151 74 50
13 92 29 92 35 0 6 7 64 15 128 l14 118 127 199 c102 162 140 213 198 266 39
37 80 70 91 74 34 12 302 33 343 27 35 -6 41 -4 61 23 18 26 28 30 67 30 37 0
64 10 133 49 47 26 123 60 169 75 78 26 82 29 82 57 0 23 14 42 66 92 l67 63
-212 157 c-185 137 -211 160 -212 184 0 15 -10 130 -22 255 l-23 228 24 47
c13 27 52 77 87 113 34 36 67 74 73 85 5 11 13 56 17 100 3 44 13 119 20 167
13 83 13 90 -9 161 -13 42 -48 115 -81 168 -90 145 -155 290 -155 347 0 26 -7
72 -15 102 -8 30 -15 85 -15 122 0 60 -4 73 -39 130 -29 47 -43 85 -55 151
-17 89 -17 89 8 185 24 95 32 189 28 323 l-2 67 -69 36 c-38 20 -71 36 -72 35
-2 0 -47 -9 -99 -19z"/>
</g>
</svg>
